X:1
T:Title
T:Yankee Doodle
T:Henry Bastable
C:Composer
L:1/8
M:4/4
K:C
V:1 treble nm="Piano" snm="Pno."
V:1
 z8 |: c2 c2 d2 e2 | c2 e2 d2 G2 | c2 c2 d2 e2 | c4 B4 | c4 c4 | d4 e4 | f z e z d z c z | %8
 B2 G2 A2 B2 | c4 c4 | A3 B A2 G2 | A2 B2 c4 | G6 A z | G2 F2 E4 | G4 z4 :: c2 c2 d2 e2 | %16
 c2 e2 d2 G2 | c2 c2 d2 e2 | c4 B4 | c4 c4 | d4 e4 | f z e z d z c z | B2 G2 A2 B2 | c4 c4 | %24
 A3 B A2 G2 | A2 B2 c4 | G6 A z | G2 F2 E4 | G4 z4 | z8 | z8 | z8 |] %32

